X:1706
T:Sorry Too Late
M:C|
L:1/8
N:"collected by McFadden"
B:O'Neill's 1706
R:Hornpipe
Z:"Transcribed by Bob Safranek, rjs@gsp.org"
K:G
   d>c | (3Bcd A>B G>DB,>D | G>B (3def g2 b>f | (3gfe d>B c>de>a |\
(3gfe (3dcB A>dc>d |
          B>dA>B  G>DB,>D  | G>B (3def g2 b>f | (3gfe (3dcB c>ed>c | B>GA>F G2:|
|: B>d | (3gag e>g (3faf d>f | g>fe>g f2 e2 | g>ba>f (3gab (3agf |\
(3gfe (3dcB A>dc>d |
         (3Bcd A>B G>DB,>D | G>B (3def g2 b>f | (3gfe (3dcB c>ed>c | B>GA>F G2:|


